X: 27207
T: Miss Ramsey
R: reel
M: 4/4
K: Dmajor
|:D3B AF~F2|AFBF AFEF|~D3B AF~F2|1 BdAF E2FE:|2 BdAF ~E3g||
|:fddf ecce|~d3B ABde|1 fddf ecce|dBAF ~E3g:|2 fdec dBAd|BdAF EGFE||

